!!!!SEGMENT: pl-kk--kk-i-326_casali-giovanni-battista--o-salutaris-hostia.krn
!!!cenid: 17xx:2138
!!!COM: Casali, Giovanni Battista
!!!COM-rismID:
!!!CDT: 1715-1792/07/06
!!!CNT: Italian
!!!OTL: O salutaris hostia
!!!PDT:
!!!AGN: Sacred
!!!SMS-siglum: PL-Kk
!!!SMS-shelfmark: Kk.I.326
!!!SMS-shelfwork: W
!!!SMS-variant:
!!!SMS-altvar:
!!!NIFC-rismSourceID: 1001145920
!!!NIFC-islandoraID: pl-kk:5461
!!!URL-pdf-islandora: https://repozytorium.nifc.pl/islandora/object/pl-kk%3A5461/datastream/PDF/view
!!!URL-scan: https://polish.musicsources.pl/pl/lokalizacje/galeria/rekopisy/5945 @EN{Scan on Polish Music Herritage in Open Access Website} @PL{Skany w portalu Dziedzictwo Muzyki Polskiej w otwartym dostępie}
!!!ONB-nifc:
!!!AIN: 1 alto 1 bass 1 organ
!!!key:
**kern	**fba	**kern	**text	**kern	**text
*part3	*part3	*part2	*part2	*part1	*part1
*staff3	*staff3	*staff2	*staff2	*staff1	*staff1
*Iorgan	*	*Ibass	*	*Ialto	*
*I"Organo	*	*I"Basso	*	*I"Alto	*
*I'Org.	*	*I'B.	*	*I'A.	*
*clefF4	*	*clefF4	*	*clefC3	*
*k[]	*	*k[]	*	*k[]	*
*d:	*	*d:	*	*d:	*
*M4/4	*	*M4/4	*	*M4/4	*
*met(c)	*	*met(c)	*	*met(c)	*
=1	=1	=1	=1	=1	=1
!LO:TX:a:Bi:t=A Due Soli:rj	!	!LO:TX:a:Bi:t=A Due:rj	!	!LO:TX:a:Bi:t=A Due:rj	!
!LO:TX:b:Bi:t=O Salutaris:rj	!	!	!	!	!
8D\L	.	4r	.	4r	.
8E\	.	.	.	.	.
8F\	.	8r	.	8r	.
8C#X\J	6\	8A\	O	8a\	O
8D\L	.	8D\	Sa-	8f\	Sa-
8E\	.	8E\	-lu-	8e\	-lu-
8F\	.	8F\	-ta-	8d\	-ta-
8D\J	.	8D\	-ris	8dd\	-ris
!LO:LB:g=original	!	!	!	!	!
=2	=2	=2	=2	=2	=2
8AA/L	#	8.A\	hos-	8.cc#X\	hos-
8BB/J	.	.	.	.	.
.	.	16A\	-ti-	16b\	-ti-
8C#/L	.	8A\	-a	8a\	-a
8AA/J	.	8C#X/	o	8a\	ò
!	!	!LO:LB:g=original	!	!LO:LB:g=original	!
8D\L	.	8D\	Sa-	8f\	Sa-
8E\J	.	8E\	-lu-	8e\	-lu-
8F\L	.	8F\	-ta-	8d\	-ta-
8D\J	.	8d\	-ris	8f\	-ris
=3	=3	=3	=3	=3	=3
4.A\	# x	8.c#X\	hos-	8.e\	hos-
.	.	16B\	-ti-	16d\	-ti-
.	.	8A\	-a	8c#X\	-a
8F\	6\ x	8F\	qu(ae)	8a\	qu(ae)
8G\L	-3 x	8G\	c(ae)-	8b-X\	c(ae)-
8F\	.	8F\	-li	8a\	-li
8E\	6\ -5	8E\	pan-	8g\	pan-
!LO:SIC:v:s=8C#\J	!	!	!	!	!
8C\J	.	8c#\	-dis	8e\	-dis
!!LO:LB:g=original
=4	=4	=4	=4	=4	=4
4.F\	.	8.A\	os-	8.f\	os-
.	.	16G\	-ti-	16g\	-ti-
.	.	8F\	-um	8a\	-um
8D\	5	8D\	qu(ae)	8f\	qu(ae)
8E\L	.	8E\L	c(ae)-	8g\	c(ae)-
8D\J	.	8D\J	.	8f\	-li
8C#/L	.	4C#X/	-li	8e\	pan-
8AA/J	.	.	.	8a\	-dis
=5	=5	=5	=5	=5	=5
8D\L	.	8D\L	pan-	8.f\	os-
8F\	.	8E\J	.	.	.
.	.	.	.	16e\	-ti-
8E\	.	8F\	-dis	8d\	-um
8D\J	.	8D\	qu(ae)	8f\	qu(ae)
!	!	!LO:LB:g=original	!	!LO:LB:g=original	!
4AA/	# x	4A\	c(ae)-	4e\	c(ae)-
4AA/	6 4	4d\	-li	8f\L	-li
.	.	.	.	16e\L	.
.	.	.	.	16d\JJ	.
!LO:LB:g=original	!	!	!	!	!
=6	=6	=6	=6	=6	=6
4AA/	# x	4A\	pan-	4e\	pan-
4AA/	6 4	4A\	-dis	4f\	-dis
!LO:TX:t=P:problem=mixed beam	!	!	!	!	!
8AA/L	# x	8A\	c(ae)-	8g\	c(ae)-
8A\J	.	8c#X\	-li	8e\	-li
8D\L	.	8d\	pan-	8f\	pan-
8G\J	-3 x	8G\	-d(is)	8g\	-dis
=7	=7	=7	=7	=7	=7
4A\	6 4	4.A\	os-	4f\	O-
4AA/	# x	.	.	4e\	-sti-
.	.	8A\	-ti-	.	.
!	!	!LO:LB:g=original	!	!LO:LB:g=original	!
8D\L	.	8D\	-um	8d\	-um
8F\	6\ x	8F\	qu(ae)	8a\	qu(ae)
8E\	#6 x	8E\	c(ae)-	8g\	c(ae)-
8D\J	5 x	8D\	-li	8f\	-li
=8	=8	=8	=8	=8	=8
4AA/	#	4A\	pan-	4e\	pan-
4D\	.	4d\	-dis	4f\	-dis
!LO:LB:g=original	!	!	!	!	!
2BB-X/	7	4.B-X\	os-	4.d\	os-
.	6	8B-\	-ti-	8d\	-ti-
=9	=9	=9	=9	=9	=9
!	!	!LO:TX:a:t=P:problem=W źródle M3/8 przed łamaniem systemu i po	!	!LO:TX:a:t=P:problem=W źródle M3/8 przed łamaniem systemu i po	!
1AA	#	1A	-um	1c#X	-um
!	!	!LO:LB:g=original	!	!LO:LB:g=original	!
=10	=10	=10	=10	=10	=10
*	*	*clefF4	*	*clefC3	*
*M3/8	*	*M3/8	*	*M3/8	*
!LO:TX:a:Bi:t=And(ant)e.:rj	!	!LO:TX:a:Bi:t=And(ant)e.:rj	!	!LO:TX:a:Bi:t=And(ant)e.:rj	!
!LO:TX:b:Bi:t=Bella premunt	!	!	!	!	!
4D/	.	4D\	Bel-	4f\	Bel-
8AA/	.	8A\	-la	8e\	-la
=11	=11	=11	=11	=11	=11
8D\L	.	8d\	pre-	16f\LL	pre-
.	.	.	.	16e\JJ	.
8D\	.	4D\	-munt	4d\	-munt
8D\J	.	.	.	.	.
=12	=12	=12	=12	=12	=12
8F\L	6\	8F\L	bel-	8d\L	bel-
8E\	#6	8E\J	.	8e\J	.
8D\J	.	8D/	-la	8f\	-la
!LO:LB:g=original	!	!LO:LB:g=original	!	!	!
=13	=13	=13	=13	=13	=13
4C#/	.	4C#X/	pre-	16e\LL	pre-
.	.	.	.	16d\	.
.	.	.	.	16e\	.
.	.	.	.	16f\	.
8C#/	.	8C#/	-munt	16g\	.
.	.	.	.	16a\JJ	.
!	!	!	!	!LO:LB:g=original	!
=14	=14	=14	=14	=14	=14
4D/	.	16D\LL	pre-	16f\LL	.
.	.	16C#X\	.	16e\	.
.	.	16D\	.	16f\	.
.	.	16E\	.	16g\	.
8D/	-6	16F\	.	16a\	.
.	.	16G\JJ	.	16b-X\JJ	.
=15	=15	=15	=15	=15	=15
4E\	-5 x	16E\LL	.	16g\LL	.
.	.	16D\	.	16f\	.
.	.	16E\	.	16g\	.
.	.	16F\	.	16a\	.
8E\	6\ 5	16G\	.	16b-X\	.
.	.	16A\JJ	.	16cc\JJ	.
=16	=16	=16	=16	=16	=16
8F\L	.	8F\	-munt	8a\	.
8G\	6\ -3	8G\	.	8g\	-munt
8A\J	6\ x	8A\	os-	8f\	hos-
=17	=17	=17	=17	=17	=17
!LO:TX:t=P:problem=mixed beam	!	!	!	!	!
8B-X\L	6\ x	4B-X\	-ti-	8g\	-ti-
8c\	6 4	.	.	4e\	-li-
8C/J	3 x	8c\	-li-	.	.
!!LO:LB:g=original
=18	=18	=18	=18	=18	=18
16F\LL	.	8F\	-a	8f\	-a
16G\J	.	.	.	.	.
8A\	.	8r	.	8r	.
8F\J	.	8F\	da	8a\	da
=19	=19	=19	=19	=19	=19
8C/	.	8c\	ro-	16g\LL	ro-
.	.	.	.	16f\	.
4C#X/	6 5	4c#X\	-bur	16g\	.
.	.	.	.	16b-X\	.
.	.	.	.	16a\	.
.	.	.	.	16g\JJ	.
=20	=20	=20	=20	=20	=20
4D\	.	4d\	fer	8f\L	.
.	.	.	.	8g\J	.
8F\	6	8F\	au-	8a\	-bur
=21	=21	=21	=21	=21	=21
8.E\L	#	8.E\	-xi-	4g#X\	fer
16D\K	.	16D/	-li-	.	.
8C\J	6	8C/	-um	[8a\	au-
!LO:PB:g=original	!	!LO:LB:g=original	!	!LO:LB:g=original	!
=22	=22	=22	=22	=22	=22
!LO:TX:t=P:problem=mixed beam	!	!	!	!	!
8D\L	6 9	8D\	au-	16a\LL]	.
.	.	.	.	16b\JJ	.
.	.	.	.	8qqa/	.
8E\	6 4	8.E\	-xi-	8.g#X\	-xi-
8EE/J	# x	.	.	.	.
.	.	16E\	-li-	16a\	-li-
=23	=23	=23	=23	=23	=23
8AA/L	.	4AA/	-um	4a\	-um
8C/	6\	.	.	.	.
8E/J	#	8r	.	8r	.
=24	=24	=24	=24	=24	=24
8A\L	.	4A\	bel-	4a\	bel-
8c\	6\	.	.	.	.
8B\J	#6	8B\	-la	8g#X\	-la
=25	=25	=25	=25	=25	=25
8A\L	.	8c\	pre-	8a\	pre-
8G#X\	.	8B\	-munt	8b\	-munt
8A\J	.	8A\	ho-	8cc\	ho-
!LO:LB:g=original	!	!LO:PB:g=original	!	!LO:PB:g=original	!
=26	=26	=26	=26	=26	=26
4.E\	#	8.E\	-sti-	8.b\	-sti-
.	.	16E\	-li-	16a\	-li-
.	.	8E\	-a	8g#X\	-a
=27	=27	=27	=27	=27	=27
8C#X/L	6\	8.A\L	da	4a\	dà
8C#/	.	.	.	.	.
.	.	16G\L	.	.	.
8C#/J	.	16F\	.	8r	.
.	.	16E\JJ	.	.	.
=28	=28	=28	=28	=28	=28
4D\	5	4D\	ro-	8.a\L	da
.	.	.	.	16g\L	.
8D\	.	8D\	-bur	16f\	.
.	.	.	.	16e\JJ	.
=29	=29	=29	=29	=29	=29
8BB/L	6\	8.G\L	fer	4d\	ro-
8BB/	.	.	.	.	.
.	.	16F\L	.	.	.
8BB/J	.	16E\	.	8d\	-bur
.	.	16D\JJ	.	.	.
!LO:LB:g=original	!	!	!	!LO:LB:g=original	!
=30	=30	=30	=30	=30	=30
4C/	.	4C/	.	8.g\L	fer
.	.	.	.	16f\L	.
8C/	.	8c\	au-	16e\	.
.	.	.	.	16d\JJ	.
!	!	!LO:LB:g=original	!	!	!
=31	=31	=31	=31	=31	=31
4G\	6 4	4c\	-xi-	16e\	.
.	.	.	.	16f\	au-
.	.	.	.	8e\	-xi-
8GG/	3 X	8B\	-li-	8d\	-li-
=32	=32	=32	=32	=32	=32
4C/	.	4c\	-um	4c\	-um
8C#X/	6\	8c#X\	da	8a\	da
!	!	!	!	!LO:LB:g=original	!
=33	=33	=33	=33	=33	=33
8D\L	.	8d\	ro-	8f\	ro-
8A\	#	8A\	-bur	8e\	-bur
8G\J	#4	8r	.	8r	.
!LO:LB:g=original	!	!	!	!	!
=34	=34	=34	=34	=34	=34
4F\	6	4F\	fer	4a\	fer
8G\	-3	8G\	au-	8b-X\	au-
!	!	!LO:LB:g=original	!	!	!
=35	=35	=35	=35	=35	=35
8A\L	6 4	4A\	-xi-	16f\LL	-xi-
.	.	.	.	16g\JJ	.
!LO:TX:t=P:problem=mixed beam	!	!	!	!	!
.	.	.	.	8qqf/	.
8AA/	.	.	.	8.e\	.
8AA/J	# x	8A\	-li-	.	.
.	.	.	.	16d\	-li-
=36	=36	=36	=36	=36	=36
8D\L	.	4D\	-um	4d\	-um
8d\	.	.	.	.	.
8c\J	4 2	8r	.	8r	.
!	!	!	!	!LO:LB:g=original	!
=37	=37	=37	=37	=37	=37
8B-X\L	6	8B-X\L	fer	8g\L	fer
8A\	.	8A\J	.	8a\J	.
8G\J	-3	8G\	au-	8b-X\	au-
!LO:LB:g=original	!	!	!	!	!
=38	=38	=38	=38	=38	=38
!LO:TX:t=P:problem=mixed beam	!	!	!	!	!
8A\L	6 4	4A\	-xi-	16f\LL	-xi-
.	.	.	.	16g\JJ	.
.	.	.	.	8qqf/	.
8AA/	.	.	.	8.e\	.
8AA/J	# x	8A\	-li-	.	.
.	.	.	.	16d\	-li-
!	!	!LO:LB:g=original	!	!	!
=39	=39	=39	=39	=39	=39
4D\	.	4D\	-um	4d\	-um
!LO:TX:a:t=P:problem=w źródle ozdobna kreska taktowa	!	!	!	!	!
!	!	!LO:TX:a:t=P:problem=w źródle ozdobna kreska taktowa	!	!LO:TX:a:t=P:problem=w źródle ozdobna kreska taktowa	!
!LO:TX:b:Bi:t=Finis	!	!LO:TX:b:Bi:t=Finis	!	!LO:TX:b:Bi:t=Finis	!
8r	.	8r	.	8r	.
==	==	==	==	==	==
*-	*-	*-	*-	*-	*-
!!!system-decoration: [(s1,s2)]s3
!!!RDF**kern: > = above
!!!RDF**kern: < = below
!!!RDF**kern: i = editorial accidental
!!!EED: Wojciech Jakubiak-Danek
!!!EEV: 2021-04-10
!!!ENC: Anastazja Marusiak
!!!END: 2021-03-16
